X:20
T:Cold Frosty Morning
R:reel
C:Melvin Wine
S:Transcribed by Doug Mast from playing of Whitt Mead et al.
M:C|
L:1/8
K:G
G2 B2|:d4 d2 ed|BBdB G2 B2|d4 d2ed|BBdB D2 G2|
|B4 B2A2|GAGG EG2E|DB,DF G2GA|BGAB G2|
(G,2|G,)B,DF G2G2|GBAG EG2E|DB,DF G2GA|BGAB G2|
(G,2|G,)B,DF G2G2|GBAG EG2E|DB,DF G2GA|1 BGAB G4:|2 BGAB G2 B2:|

